icons/buffer.svg

<?xml version="1.0" encoding="UTF-8" standalone="no"?>
<svg width="256px" height="262px" viewBox="0 0 256 262" version="1.1" xmlns="http://www.w3.org/2000/svg" xmlns:xlink="http://www.w3.org/1999/xlink" preserveAspectRatio="xMidYMid">
    <g>
        <path d="M136.442163,1.51457611 C174.481163,19.1595761 213.145163,37.3815761 251.132163,55.1365761 C253.159163,56.0845761 255.817163,56.7295761 255.820163,59.5995761 C255.824163,62.4745761 253.169163,63.1145761 251.138163,64.0635761 C212.999163,81.9005761 174.855163,99.7265761 136.687163,117.500576 C130.874163,120.207576 124.904163,120.172576 119.083163,117.459576 C80.8441634,99.6345761 42.6201634,81.7775761 4.40316338,63.9065761 C2.43616338,62.9875761 -0.0388366165,62.2905761 0.0381633835,59.4935761 C0.110163384,56.8765761 2.47716338,56.1965761 4.37016338,55.3115761 C42.7471634,37.3805761 81.5131634,19.1655761 119.940163,1.34357611 C124.002163,-0.537423894 132.209163,-0.409423894 136.442163,1.51457611 Z M127.880163,261.561576 C125.113163,261.561576 123.039163,260.511576 119.086163,259.032576 C80.9011634,241.319576 42.7631634,223.505576 4.62816338,205.685576 C2.60116338,204.738576 -0.0238366165,204.069576 0.000163383514,201.181576 C0.0251633835,198.308576 2.65216338,197.674576 4.67916338,196.710576 C11.0051634,193.702576 17.3631634,190.762576 23.7181634,187.817576 C30.0671634,184.874576 36.3751634,184.915576 42.7431634,187.900576 C68.0221634,199.750576 93.3291634,211.541576 118.619163,223.365576 C124.898163,226.301576 131.125163,226.240576 137.397163,223.302576 C162.757163,211.426576 188.130163,199.575576 213.505163,187.729576 C219.497163,184.932576 225.568163,184.854576 231.588163,187.582576 C238.357163,190.649576 245.077163,193.826576 251.802163,196.987576 C252.799163,197.456576 253.810163,197.985576 254.645163,198.688576 C256.442163,200.202576 256.466163,202.253576 254.632163,203.722576 C253.517163,204.615576 252.183163,205.273576 250.875163,205.883576 C213.048163,223.556576 175.226163,241.240576 137.348163,258.804576 C134.404163,260.168576 130.647163,261.561576 127.880163,261.561576 Z M127.746163,190.738576 C126.481163,190.738576 121.565163,189.396576 118.768163,188.097576 C80.7401634,170.437576 42.7631634,152.668576 4.78316338,134.906576 C2.74316338,133.952576 0.0831633835,133.336576 0.0301633835,130.494576 C-0.0258366165,127.479576 2.75816338,126.876576 4.85816338,125.877576 C11.2541634,122.832576 17.6681634,119.821576 24.1051634,116.863576 C30.2091634,114.059576 36.3231634,114.125576 42.4221634,116.974576 C67.9571634,128.901576 93.4911634,140.831576 119.045163,152.719576 C124.960163,155.471576 130.967163,155.450576 136.887163,152.694576 C162.514163,140.761576 188.123163,128.791576 213.746163,116.850576 C219.671163,114.089576 225.656163,114.091576 231.585163,116.796576 C238.341163,119.878576 245.055163,123.053576 251.776163,126.210576 C252.699163,126.644576 253.645163,127.102576 254.436163,127.730576 C256.475163,129.350576 256.459163,131.489576 254.396163,133.111576 C253.602163,133.735576 252.659163,134.196576 251.735163,134.628576 C213.366163,152.565576 175.004163,170.518576 136.588163,188.353576 C133.947163,189.580576 129.010163,190.738576 127.746163,190.738576 Z" fill="#000000"></path>
    </g>
</svg>

<svg xmlns="http://www.w3.org/2000/svg" viewBox="0 0 256 261.562">
  <path d="M136.442 1.515c38.04 17.645 76.703 35.867 114.69 53.622 2.027.948 4.685 1.593 4.688 4.463.004 2.875-2.65 3.515-4.682 4.464a76686.65 76686.65 0 0 1-114.45 53.437c-5.814 2.707-11.784 2.672-17.605-.041A104736.431 104736.431 0 0 1 4.403 63.907c-1.967-.92-4.442-1.616-4.365-4.413.072-2.617 2.44-3.297 4.332-4.182C42.747 37.38 81.513 19.166 119.94 1.344c4.062-1.881 12.27-1.753 16.502.17zm-8.562 260.047c-2.767 0-4.84-1.05-8.794-2.53-38.185-17.712-76.323-35.526-114.458-53.346-2.027-.947-4.652-1.616-4.628-4.504.025-2.873 2.652-3.507 4.68-4.471 6.325-3.008 12.683-5.948 19.038-8.893 6.35-2.943 12.657-2.902 19.025.083 25.28 11.85 50.586 23.64 75.876 35.465 6.28 2.936 12.506 2.875 18.778-.063a70166.124 70166.124 0 0 1 76.108-35.573c5.992-2.797 12.063-2.875 18.083-.147 6.77 3.067 13.49 6.244 20.214 9.405.997.469 2.008.998 2.843 1.7 1.797 1.515 1.821 3.566-.013 5.035-1.115.893-2.449 1.55-3.757 2.16-37.827 17.674-75.649 35.358-113.527 52.922-2.944 1.364-6.7 2.757-9.468 2.757zm-.134-70.823c-1.265 0-6.18-1.342-8.978-2.641-38.028-17.66-76.005-35.43-113.985-53.191-2.04-.954-4.7-1.57-4.753-4.412-.056-3.015 2.728-3.618 4.828-4.617 6.396-3.045 12.81-6.056 19.247-9.014 6.104-2.804 12.218-2.738 18.317.11 25.535 11.928 51.07 23.858 76.623 35.746 5.915 2.752 11.922 2.73 17.842-.025 25.627-11.933 51.236-23.903 76.86-35.844 5.924-2.761 11.91-2.76 17.838-.054 6.756 3.082 13.47 6.257 20.191 9.414.923.434 1.87.892 2.66 1.52 2.04 1.62 2.023 3.759-.04 5.38-.794.625-1.737 1.086-2.66 1.518-38.37 17.937-76.732 35.89-115.148 53.725-2.64 1.227-7.578 2.385-8.842 2.385z"/>
</svg>
